X:1
T:Allegrissimo
T:Allegrissimo K. 482
T:Allegrissimo
T:from Harpsichord Sonata K. 482 arr. for Flute and Clarinet 
T:Domenico Scarlatti (1685-1757)
T:Arrangement by Felix Scharpf
T:twoflutes 2019 / https://commons.wikimedia.org/wiki/File:Busch_Werke_v1_p_403.jpg
T:twoflutes 2019 / https://commons.wikimedia.org/wiki/File:Busch_Werke_v1_p_403.jpg
T:twoflutes 2019 / https://commons.wikimedia.org/wiki/File:Busch_Werke_v1_p_403.jpg
T:twoflutes 2019 / https://commons.wikimedia.org/wiki/File:Busch_Werke_v1_p_403.jpg
T:twoflutes 2019 / https://commons.wikimedia.org/wiki/File:Busch_Werke_v1_p_403.jpg
C:Domenico Scarlatti (1685-1757)
Z:twoflutes 2019 / https://commons.wikimedia.org/wiki/File:Busch_Werke_v1_p_403.jpg
%%score [ 1 2 ]
L:1/8
Q:1/2=95
M:2/2
K:G
V:1 treble nm="Flute"
V:2 treble transpose=-2 nm="Clarinet"
V:1
 z (d'bg dBGD) | z4 z2 (gd) | .c'2 b4 (ae) | .f2 g3 f(fe) | (ed)(dc) (cB)(BA) | .B2 g3 f(fe) | %6
 (ed)(dc) (cB)(BA) | B3 D (EG)FA- | A !>!G2 D (EG)FA- | A !>!G2 E (FA)^GB- | B !>!A2 E (FA)^GB- | %11
 B !>!A2 F (^GB)^A^c- | c !>!B2 F (^GB)^A^c- | cB(ba) (ag)(gf) | (fe)(ed) (d^c)(cB) | %15
 (BA)(ag) (gf)(fe) | (e^d)(d^c) (cB)(BA) | (Gd)(d^c) (cg)(gf) | (fa)(a^g) (gd')(d'^c') | %19
 (^c'b)ae (fa)^gb- | b !>!a2 e (fa)^gb- | b !>!a2 d (ea)g^c'- | c' !>!d'2 d (ea)g^c'- | %23
 c'd'(af) (^ab)(ge) | (^ga)(fd) (fed^c) | d3 e (fa)^gb- | b !>!a2 e (fa)^gb- | %27
 b !>!a2 d (ea)g^c'- | c' !>!d'2 d (ea)g^c'- | c'd'(af) (^ab)(ge) | (^ga)(fd) (fed^c) | d4 A4- | %32
 A/(B/^c/d/ e/f/g/a/ .b)ae'g- | gfbe- ed(d^c) | d4 A4- | A/(B/^c/d/ e/f/g/a/ .b)ae'g- | %36
 gfbe- ed(d^c) | d4 (Pc'3 b/a/) | g4 (Pg3 f/e/) | d4 (Pd3 ^c/B/) | A2 z d (eA)(ge) | %41
 f(d.d')d (f2 Pe2) | d4 (Pc3 B/A/) | G4 (Pg3 f/e/) | d4 (Pd3 ^c/B/) | A2 z d (eA)(ge) | %46
 f(d.d')d (f2 Pe2) | (d.d')(af) (^ab)(=af) | (^c'g)(d'd) Pe4 | .d(dc)A (^AB)(=AF) | %50
 (^cG)(dD) PE4 |1 D6 z2 ::2 z2 d2 (Pc3 B/A/) || .B2 d2 (Pc3 B/A/) | (Bcdc) (cB)(BA) | %55
 .^G2 e2 (Pd3 c/B/) | .c2 e2 (Pd3 ^c/B/) | (^cded) (dc)(cB) | .^A2 f2 (Pe3 d/^c/) | %59
 .d2 f2 (Pe3 d/^c/) | d3 B (^ce)^df- | f !>!e2 B (^ce)^df- | f !>!e2 e (=fa)^gb- | %63
 b !>!a2 e (=fa)^gb | .ae'(e'd') (d'c')(c'b) | (ba)(ag) (gf)(fe) | .dd'(d'c') (c'b)(ba) | %67
 (ag)(gf) (fe)(ed) | (dcBA) B2 (P^c3/2B/4c/4) |{^c} d3 A (Bd)ce- | e !>!d2 A (Bd)^ce- | %71
 e !>!d2 d (eg)fa- | a !>!g2 d (eg)fa | g4 d4- | d/(e/f/g/ a/b/c'/d'/) .e' d'2 c'- | %75
 c'(bag) (bagf) | b4 d4- | d/(e/f/g/ a/b/c'/d'/) .e' d'2 c'- | c'(bag) (bagf) | g4 (P=f3 e/d/) | %80
 c4 (Pc3 B/A/) | G4 (PG3 F/E/) | D2 z g (ad)(c'a) | b(ge')g (b2 Pa2) | g4 (P=f3 e/d/) | %85
 c4 (Pc3 B/A/) | G4 (PG3 F/E/) | D2 z G (AD)(cA) | (BG)(eG) (PB2 A2) | G2 (=fd) (^de^fg | %90
 abc'd') Pa4 | .gg(=fd) (^de)(=dB) |1 (fc)(gG) (B2 PA2) | G6 z2 :|2 %94
[Q:1/2=80]"_rit." (fc)[Q:1/2=60](gG) (B2[Q:1/2=50] PA2) | G6 z2 |] %96
V:2
[K:A] z8 | (cAEC A,4) | z2 (AE) d4- | d2 (c2 B2 A2 | G2) (E2 F2 G2 | A2) (c2 B2 A2 | %6
 G2) (E2 F2 G2 | A2) (C2 D2) (B,2 | C2) (A,2 D2) (B,2 | C2 ^D2 E2) (C2 | ^D2) (B,2 E2) (C2 | %11
 ^D2 ^E2 F2) (D2 | E2) (C2 F2) (^D2 | E2 C2) (f2 e2 | ^d2 c2 B2 A2 | G2) E2 (e2 ^d2 | c2 B2 A2 G2 | %17
 F2) F2 B2 B2 | E2 (E2 C2) (C2 | B,2) (^d2 e2) (c2 | ^d2) (d2 e2) (c2 | B2) (G2 A2 B2) | %22
 E2 (G2 A2) B2 | E2 (G2 A2) F2 | G2 (G2 A2) B2 | (E2 ^D2 E2) C2 | ^D2 B,2 E2 C2 | %27
 B,2 (G2 =A2) (F2 | G2) (G2 A2) (F2 | G2) (G2 A2) (F2 | G2) (G2 A2 B2) | e2 E2- E(F/G/ A/B/c/^d/) | %32
 e2 (E2 ^D2) B,2 | E2 (A,2 B,2) B,2 | .E2 E2- E(F/G/ A/B/c/^d/) | e4 ^d2 B2 | e2 A2 B2 B,2 | %37
 .E2 g4 (ab) | .c'2 ^d4 (ef) | .g2 ^A4 (Bc) | .^d2 B4 =d2 | e2 A2 B2 B,2 | .E2 g4 (ab) | %43
 .c'2 ^d4 (ef) | .g2 ^A4 (Bc) | .^d2 B4 d2 | e2 A2 B2 B,2 | E2 e2 a2 g2 | f2 e2 A2 B2 | %49
 E2 E2 A2 G2 | F2 E2 A,2 B,2 |1 E6 z2 ::2 E2 (E2 F2 G2 || A2) (E2 F2 G2 | A2) (E2 F2 =G2 | %55
 F2) (F2 G2 ^A2 | B2) (F2 G2 ^A2 | B2) (F2 G2 A2 | G2) (G2 ^A2 ^B2 | c2) (G2 ^A2 ^B2 | %60
 c2) (A2 B2) (G2 | A2) (F2 B2) (G2 | ^A2 B2) (e2 c2) | (d2 B2) (e2 c2) | (d2 B2) (b2 a2 | %65
 g2 f2 e2 d2 | c2) A2 (a2 g2 | f2 e2 d2 c2 | B2) (G2 A2) (F2 | G2) E2 A2 (F2 | G2) E2 A2 (F2 | %71
 G2 A2) =d2 (B2 | c2) A2 d2 B2 | z2 A,2- A,(B,/C/ D/E/F/G/) | A4 G2 E2 | A2 (C2 D2 E2) | %76
 z2 A,2- A,(B,/C/ D/E/F/G/) | A4 G2 E2 | A2 (C2 D2 E2) | .G,2 c4 (de) | .f2 ^G4 (AB) | %81
 .c2 ^D4 (EF) | .G2 E4 G2 | A2 (D2 E2) E,2 | .A,2 c4 (de) | .f2 ^G4 (AB) | .c2 ^D4 (EF) | %87
 .G2 E4 G2 | A2 (d2 e2) E2 | A,2 A4 d2- | d2 (c2 d2 e2) | A2 (c2 d2 c2 |1 B2 A2) (D2 E2) | %93
 A6 z2 :|2 B2 A2 (D2 E2) | A6 z2 |] %96

